icons/svg/commenting_16.svg

<?xml version="1.0" encoding="UTF-8"?>
<svg width="16px" height="16px" viewBox="0 0 16 16" version="1.1" xmlns="http://www.w3.org/2000/svg" xmlns:xlink="http://www.w3.org/1999/xlink">
    <!-- Generator: Sketch 59.1 (86144) - https://sketch.com -->
    <title>commenting_16</title>
    <desc>Created with Sketch.</desc>
    <g id="New-Icon" stroke="none" stroke-width="1" fill="none" fill-rule="evenodd">
        <g id="3d-object_16" fill="#171B1F">
            <path d="M8,0.0005 C12.411,0.0005 16,3.5835 16,7.9895 C16,12.3955 12.411,15.9795 8,15.9795 C6.674,15.9795 5.362,15.6445 4.191,15.0095 L4.191,15.0095 L0.629,15.9625 C0.586,15.9745 0.543,15.9795 0.5,15.9795 C0.369,15.9795 0.241,15.9285 0.146,15.8335 C0.02,15.7065 -0.029,15.5225 0.017,15.3505 L0.017,15.3505 L0.971,11.7935 C0.335,10.6255 0,9.3145 0,7.9895 C0,3.5835 3.589,0.0005 8,0.0005 Z M8,1.0005 C4.14,1.0005 1,4.1355 1,7.9895 C1,9.2085 1.325,10.4145 1.939,11.4765 C2.006,11.5915 2.024,11.7285 1.99,11.8565 L1.99,11.8565 L1.208,14.7725 L4.128,13.9915 C4.171,13.9795 4.214,13.9745 4.258,13.9745 C4.345,13.9745 4.431,13.9965 4.508,14.0415 C5.572,14.6545 6.78,14.9795 8,14.9795 C11.86,14.9795 15,11.8435 15,7.9895 C15,4.1355 11.86,1.0005 8,1.0005 Z M5,7.5 C5.276,7.5 5.5,7.724 5.5,8 C5.5,8.276 5.276,8.5 5,8.5 C4.724,8.5 4.5,8.276 4.5,8 C4.5,7.724 4.724,7.5 5,7.5 Z M8,7.5 C8.276,7.5 8.5,7.724 8.5,8 C8.5,8.276 8.276,8.5 8,8.5 C7.724,8.5 7.5,8.276 7.5,8 C7.5,7.724 7.724,7.5 8,7.5 Z M11,7.5 C11.276,7.5 11.5,7.724 11.5,8 C11.5,8.276 11.276,8.5 11,8.5 C10.724,8.5 10.5,8.276 10.5,8 C10.5,7.724 10.724,7.5 11,7.5 Z" id="fill"></path>
        </g>
    </g>
</svg>

<svg width="16" height="16" xmlns="http://www.w3.org/2000/svg"><path d="M8 0c4.411 0 8 3.583 8 7.99 0 4.405-3.589 7.99-8 7.99a8.002 8.002 0 01-3.809-.97l-3.562.953a.5.5 0 01-.612-.612l.954-3.558A7.966 7.966 0 010 7.99C0 3.582 3.589 0 8 0zm0 1C4.14 1 1 4.136 1 7.99c0 1.219.325 2.425.939 3.486a.5.5 0 01.051.38l-.782 2.917 2.92-.781a.493.493 0 01.38.05A7.009 7.009 0 008 14.98c3.86 0 7-3.136 7-6.99S11.86 1 8 1zM5 7.5a.5.5 0 110 1 .5.5 0 010-1zm3 0a.5.5 0 110 1 .5.5 0 010-1zm3 0a.5.5 0 110 1 .5.5 0 010-1z" fill="#171B1F" fill-rule="evenodd"/></svg>
